Adwaita++/status/22/trophy-silver.svg

<svg height="22" width="22" xmlns="http://www.w3.org/2000/svg">
  <path d="m16.329157 1.5007137a4.9150797 5.5761229 20.398439 0 0 -4.549852 2.9433901 4.9150797 5.5761229 20.398439 0 0 1.540055 7.4258592 4.9150797 5.5761229 20.398439 0 0 6.90144-2.314478 4.9150797 5.5761229 20.398439 0 0 -1.540055-7.4258584 4.9150797 5.5761229 20.398439 0 0 -2.351588-.6289129zm.04004 2.034201c.47909-.012259.943868.1037101 1.346694.3476599 1.289045.7806395 1.810562 2.788031.792977 4.6367669-1.017586 1.8487365-2.93561 2.3783125-4.224654 1.5976735s-1.811538-2.7880315-.793952-4.6367674c.699589-1.2710058 1.824937-1.9183644 2.878936-1.9453329z" opacity=".2"/>
  <path d="m5.6708429 1.5007137a5.5761229 4.9150797 69.601561 0 0 -2.3515872.6289129 5.5761229 4.9150797 69.601561 0 0 -1.5400552 7.4258584 5.5761229 4.9150797 69.601561 0 0 6.9014394 2.314478 5.5761229 4.9150797 69.601561 0 0 1.5400551-7.4258592 5.5761229 4.9150797 69.601561 0 0 -4.5498521-2.9433901zm-.041015 2.034201c1.0538591.0267158 2.1793459.6743271 2.8789357 1.9453329 1.0175856 1.8487359.4960676 3.8561284-.7929768 4.6367674-1.2890445.780639-3.2070681.251063-4.2246538-1.5976735-1.0175863-1.8487359-.4960678-3.8551509.7929764-4.6357903.4028267-.2439499.86669-.3607799 1.3457185-.3486365z" opacity=".2"/>
  <rect height="2" opacity=".2" rx="1" width="14" x="4" y="19.5"/>
  <g fill="#9a9a9a">
    <path d="m16.329157 1.0007617a4.9150797 5.5761229 20.398439 0 0 -4.549852 2.9433903 4.9150797 5.5761229 20.398439 0 0 1.540055 7.425859 4.9150797 5.5761229 20.398439 0 0 6.90144-2.314477 4.9150797 5.5761229 20.398439 0 0 -1.540055-7.4258594 4.9150797 5.5761229 20.398439 0 0 -2.351588-.6289129zm.04004 2.034201c.47909-.012259.943868.1037101 1.346694.3476599 1.289045.7806397 1.810562 2.7880313.792977 4.6367671-1.017586 1.8487363-2.93561 2.3783133-4.224654 1.5976733-1.289044-.7806392-1.811538-2.7880313-.793952-4.6367671.699589-1.2710062 1.824937-1.9183647 2.878936-1.9453332z"/>
    <path d="m5.6708429 1.0007617a5.5761229 4.9150797 69.601561 0 0 -2.3515872.6289129 5.5761229 4.9150797 69.601561 0 0 -1.5400552 7.4258594 5.5761229 4.9150797 69.601561 0 0 6.9014394 2.314477 5.5761229 4.9150797 69.601561 0 0 1.5400551-7.425859 5.5761229 4.9150797 69.601561 0 0 -4.5498521-2.9433903zm-.041015 2.034201c1.0538591.0267158 2.1793459.6743271 2.8789357 1.9453332 1.0175856 1.8487358.4960676 3.8561279-.7929768 4.6367671-1.2890445.78064-3.2070681.251063-4.2246538-1.5976733-1.0175863-1.8487358-.4960678-3.8551509.7929764-4.6357905.4028267-.2439499.86669-.3607799 1.3457185-.3486365z"/>
    <path d="m9 11h4v9h-4z"/>
  </g>
  <path d="m5.0000001 2.9615385v4.3846154c0 2.1666551 2.6862914 7.1538461 5.9999999 7.1538461 3.313709 0 6-4.987191 6-7.1538461v-4.3846154z" opacity=".2"/>
  <path d="m5.0000001 2.4615385v4.3846154c0 2.1666551 2.6862914 7.1538461 5.9999999 7.1538461 3.313709 0 6-4.987191 6-7.1538461v-4.3846154z" fill="#b4b4b4"/>
  <rect height="2" opacity=".2" rx="1" width="16" x="3" y="1.5"/>
  <rect fill="#b4b4b4" height="2" rx="1" width="16" x="3" y="1"/>
  <path d="m11 16.999953a4.5000472 3.0000313 0 0 0 -4.5000469 3.000031h9.0000939a4.5000472 3.0000313 0 0 0 -4.500047-3.000031z" fill="#b4b4b4"/>
  <rect fill="#4f4f4f" height="2" rx="1" width="14" x="4" y="19"/>
  <path d="m3.9999269.9997852c-.5540058 0-1.0000105.4460046-1.0000105 1.0000104 0 .086918.014505.1697065.035157.2500027.1109764-.4315011.497766-.7500079.9648535-.7500079h14.0001461c.467088 0 .853877.3185068.964855.7500079.02065-.080296.03516-.1630843.03516-.2500027 0-.5540058-.446005-1.0000104-1.000011-1.0000104z" fill="#f9f9f9" opacity=".2"/>
</svg>

<svg xmlns="http://www.w3.org/2000/svg" width="22" height="22" version="1">
 <path d="M 16.329157,1.5007137 A 4.9150797,5.5761229 20.398439 0 0 11.779305,4.4441038 4.9150797,5.5761229 20.398439 0 0 13.31936,11.869963 4.9150797,5.5761229 20.398439 0 0 20.2208,9.555485 4.9150797,5.5761229 20.398439 0 0 18.680745,2.1296266 4.9150797,5.5761229 20.398439 0 0 16.329157,1.5007137 Z m 0.04004,2.034201 c 0.47909,-0.012259 0.943868,0.1037101 1.346694,0.3476599 1.289045,0.7806395 1.810562,2.788031 0.792977,4.6367669 -1.017586,1.8487365 -2.93561,2.3783125 -4.224654,1.5976735 C 12.99517,9.336376 12.472676,7.3289835 13.490262,5.4802476 14.189851,4.2092418 15.315199,3.5618832 16.369198,3.5349147 Z" style="opacity:0.2"/>
 <path d="M 5.6708429,1.5007137 A 5.5761229,4.9150797 69.601561 0 0 3.3192557,2.1296266 5.5761229,4.9150797 69.601561 0 0 1.7792005,9.555485 5.5761229,4.9150797 69.601561 0 0 8.6806399,11.869963 5.5761229,4.9150797 69.601561 0 0 10.220695,4.4441038 5.5761229,4.9150797 69.601561 0 0 5.6708429,1.5007137 Z m -0.041015,2.034201 C 6.683687,3.5616305 7.8091738,4.2092418 8.5087636,5.4802476 9.5263492,7.3289835 9.0048312,9.336376 7.7157868,10.117015 6.4267423,10.897654 4.5087187,10.368078 3.491133,8.5193415 2.4735467,6.6706056 2.9950652,4.6641906 4.2841094,3.8835512 4.6869361,3.6396013 5.1507994,3.5227713 5.6298279,3.5349147 Z" style="opacity:0.2"/>
 <rect style="opacity:0.2" width="14" height="2" x="4" y="19.5" rx="1" ry="1"/>
 <path style="fill:#9a9a9a" d="M 16.329157,1.0007617 A 4.9150797,5.5761229 20.398439 0 0 11.779305,3.944152 4.9150797,5.5761229 20.398439 0 0 13.31936,11.370011 4.9150797,5.5761229 20.398439 0 0 20.2208,9.055534 4.9150797,5.5761229 20.398439 0 0 18.680745,1.6296746 4.9150797,5.5761229 20.398439 0 0 16.329157,1.0007617 Z m 0.04004,2.034201 c 0.47909,-0.012259 0.943868,0.1037101 1.346694,0.3476599 1.289045,0.7806397 1.810562,2.7880313 0.792977,4.6367671 C 17.491282,9.868126 15.573258,10.397703 14.284214,9.617063 12.99517,8.8364238 12.472676,6.8290317 13.490262,4.9802959 14.189851,3.7092897 15.315199,3.0619312 16.369198,3.0349627 Z"/>
 <path style="fill:#9a9a9a" d="M 5.6708429,1.0007617 A 5.5761229,4.9150797 69.601561 0 0 3.3192557,1.6296746 5.5761229,4.9150797 69.601561 0 0 1.7792005,9.055534 5.5761229,4.9150797 69.601561 0 0 8.6806399,11.370011 5.5761229,4.9150797 69.601561 0 0 10.220695,3.944152 5.5761229,4.9150797 69.601561 0 0 5.6708429,1.0007617 Z m -0.041015,2.034201 C 6.683687,3.0616785 7.8091738,3.7092898 8.5087636,4.9802959 9.5263492,6.8290317 9.0048312,8.8364238 7.7157868,9.617063 6.4267423,10.397703 4.5087187,9.868126 3.491133,8.0193897 2.4735467,6.1706539 2.9950652,4.1642388 4.2841094,3.3835992 4.6869361,3.1396493 5.1507994,3.0228193 5.6298279,3.0349627 Z"/>
 <rect style="fill:#9a9a9a" width="4" height="9" x="9" y="11"/>
 <path d="M 5.0000001,2.9615385 V 7.3461539 C 5.0000001,9.512809 7.6862915,14.5 11,14.5 c 3.313709,0 6,-4.987191 6,-7.1538461 V 2.9615385 Z" style="opacity:0.2"/>
 <path style="fill:#b4b4b4" d="M 5.0000001,2.4615385 V 6.8461539 C 5.0000001,9.012809 7.6862915,14 11,14 14.313709,14 17,9.012809 17,6.8461539 V 2.4615385 Z"/>
 <rect width="16" height="2" x="3" y="1.5" rx="1" ry="1" style="opacity:0.2"/>
 <rect style="fill:#b4b4b4" width="16" height="2" x="3" y="1" rx="1" ry="1"/>
 <path style="fill:#b4b4b4" d="M 11,16.999953 A 4.5000472,3.0000313 0 0 0 6.4999531,19.999984 H 15.500047 A 4.5000472,3.0000313 0 0 0 11,16.999953 Z"/>
 <rect width="14" height="2" x="4" y="19" rx="1" ry="1" style="fill:#4f4f4f"/>
 <path style="opacity:0.2;fill:#f9f9f9" d="m 3.9999269,0.9997852 c -0.5540058,0 -1.0000105,0.4460046 -1.0000105,1.0000104 0,0.086918 0.014505,0.1697065 0.035157,0.2500027 C 3.1460498,1.8182972 3.5328394,1.4997904 3.9999269,1.4997904 H 18.000073 c 0.467088,0 0.853877,0.3185068 0.964855,0.7500079 0.02065,-0.080296 0.03516,-0.1630843 0.03516,-0.2500027 0,-0.5540058 -0.446005,-1.0000104 -1.000011,-1.0000104 z"/>
</svg>
